modules/coreui-icons-free/icons/window.svg

<!-- Generated by IcoMoon.io -->
<svg version="1.1" xmlns="http://www.w3.org/2000/svg" width="24" height="24" viewBox="0 0 24 24">
<title>window</title>
<path d="M19.875 20.625v-18.375h-15.75v18.375h-1.875v1.5h19.5v-1.5zM5.625 3.75h5.625v5.625h-5.625zM5.625 10.875h5.625v6.75h-5.625zM18.375 20.625h-12.75v-1.5h12.75zM18.375 17.625h-5.625v-6.75h5.625zM18.375 9.375h-5.625v-5.625h5.625z"></path>
</svg>

<svg xmlns="http://www.w3.org/2000/svg" width="24" height="24" viewBox="0 0 24 24"><path d="M19.875 20.625V2.25H4.125v18.375H2.25v1.5h19.5v-1.5zM5.625 3.75h5.625v5.625H5.625zm0 7.125h5.625v6.75H5.625zm12.75 9.75H5.625v-1.5h12.75zm0-3H12.75v-6.75h5.625zm0-8.25H12.75V3.75h5.625z"/></svg>
